X:71
T:The Flowers of Edinburgh
C:Trad
S:Aly Bain Book, sessions
A:Scotland
M:C|
K:G
GE| "G"D2 DE G2 GA | BGBd cBAG | "D"FGFE DEFG |AFdF E2 GE |
"G"D2 DE G2 GA | BGBd "C"efge| "G"dcBA "D"GFGA |"G"B2G2G2:|
ef | "G"g2gf gbag | "D"f2fe fagf | "C"edef gfed |"Em"B2e2e2 ge |
"G"dBGB d2 Bd| "C"edef g2 fe | "G"dcBA "D"GFGA | "G"B2 G2 G2  :|
